lg/google-adsense.svg

<svg viewBox="0 0 256 227" version="1.1" xmlns="http://www.w3.org/2000/svg" preserveAspectRatio="xMidYMid" height="1em" width="1em">
  <g>
    <path d="M161.800691,62.1582686 C173.381295,42.3364222 166.505246,17.0037215 146.444924,5.55478778 C126.376197,-5.87786239 100.722903,0.899434344 89.1422994,20.7212807 C88.6319054,21.6093488 88.1518024,22.5147509 87.7028658,23.4355612 L48.552583,90.410633 C47.6864015,91.7420347 46.8848291,93.114408 46.1508423,94.5230253 L5.49529122,164.6811 L78.1454539,205.40231 L118.595272,135.836398 C119.476686,134.514451 120.278784,133.141203 120.996837,131.724006 L160.14712,64.7407046 C160.714944,63.9018375 161.282593,63.0465117 161.800691,62.1582686" fill="#FBBC04"/>
    <path d="M78.4828567,205.188698 C66.9680883,225.331313 40.9938495,232.741919 21.048563,221.120344 C1.09504723,209.49019 -5.98655988,184.2727 5.53643791,164.138314 C17.0594357,144.003927 42.8032531,136.560405 62.7567688,148.182154 C82.7102846,159.812134 89.9974501,185.054137 78.4826816,205.180468" fill="#34A853"/>
    <path d="M235.256979,75.4167811 C215.426203,63.988158 190.087199,70.7559998 178.595893,90.5505318 L137.117758,162.221929 C125.690011,181.976014 132.439818,207.253736 152.193903,218.681484 C152.229622,218.702145 152.265166,218.72263 152.300885,218.743116 C172.135513,230.175941 197.481521,223.403547 208.9702,203.601136 L250.439931,131.937969 C261.865927,112.177755 255.109817,86.8961809 235.349603,75.4701842 C235.318787,75.4523248 235.287795,75.4344654 235.256979,75.4167811" fill="#4285F4"/>
  </g>
</svg>

<svg viewBox="0 0 256 227" xmlns="http://www.w3.org/2000/svg" preserveAspectRatio="xMidYMid" height="1em" width="1em">
  <path d="M161.8 62.158c11.581-19.822 4.705-45.154-15.355-56.603C126.376-5.878 100.723.899 89.142 20.72c-.51.888-.99 1.794-1.44 2.715L48.553 90.41a49.41 49.41 0 0 0-2.401 4.112L5.495 164.681l72.65 40.721 40.45-69.566a40.013 40.013 0 0 0 2.402-4.112l39.15-66.983a45.769 45.769 0 0 0 1.654-2.583" fill="#FBBC04"/>
  <path d="M78.483 205.189c-11.515 20.142-37.49 27.553-57.434 15.931-19.954-11.63-27.036-36.847-15.513-56.982 11.523-20.134 37.267-27.578 57.22-15.956 19.954 11.63 27.241 36.872 15.727 56.998" fill="#34A853"/>
  <path d="M235.257 75.417c-19.83-11.429-45.17-4.661-56.661 15.134l-41.478 71.67c-11.428 19.755-4.678 45.033 15.076 56.46l.107.062c19.835 11.433 45.18 4.66 56.67-15.142l41.469-71.663c11.426-19.76 4.67-45.042-15.09-56.468l-.093-.053" fill="#4285F4"/>
</svg>
